X:017
T:Canamine Highland
B:NFID.107 (SD)
017canam
Z:Robinson/Black
L:1/8
M:C
R:hornpipe
Q:280
K:A=G
ed|cAA2 EAAB|cBAB cded|cAAA EAAc|BAGB d2ed|
"5"cAA2 EAAB|cBAB cded|cAAA EAAc|BAGB d2ed||
P:A minor
K:Am
"9"c2ce g2ge|c2 (3e^fg a2ab|c2ce g2ge|dBGB A2AB|
"13"c2ce g2ge|c2 (3e^fg a2ga|b2a^f g2e2|dBGB A2AB|
%
"17"c2ec gcec|c2 (3e^fg a2aB|c2ec gce2|dBGB A2AB|
"21"c2ec gcec|c2 (3e^fg a2ab|a^fg^f e2e2|dBGB A4|]

%%%

